X:1
T: Sally Alison Taylor
C:Muriel A Johnstone
R:Jig
%Q:180
K:D
M:6/8
L:1/16
|:A2|D2F2A2 G2B2d2|A2c2e2 d2f2a2|e2^G2A2 f2F2A2|g2e2c2 A2G2E2|
D2F2A2 G2B2d2|A2c2e2 d2f2a2|b2g2d2 a2f2d2|A2B2c2 d4:|
d2|e2^d2e2 c2B2A2|d2A2G2 F2G2A2|B2A2G2 A2G2F2|E2e2d2 c2B2A2|
e2^d2e2 c2B2A2|d2A2G2 F2G2A2|B2A2G2 A2G2F2|E2d2c2 d4d2|
e2^d2e2 c2B2A2|d4e2 f2g2a2|b2a2g2 a2g2f2|e4d2 c2B2A2|
D2F2A2 G2B2d2|A2c2e2 d2f2a2|b2g2d2 a2f2d2|A2B2c2 d4||
